P3
16 16
255
# Gradient image: R increases left->right, G decreases, B constant 128

0 255 128 17 238 128 34 221 128 51 204 128 68 187 128 85 170 128 102 153 128 119 136 128 136 119 128 153 102 128 170 85 128 187 68 128
0 255 128 17 238 128 34 221 128 51 204 128 68 187 128 85 170 128 102 153 128 119 136 128 136 119 128 153 102 128 170 85 128 187 68 128
0 255 128 17 238 128 34 221 128 51 204 128 68 187 128 85 170 128 102 153 128 119 136 128 136 119 128 153 102 128 170 85 128 187 68 128
0 255 128 17 238 128 34 221 128 51 204 128 68 187 128 85 170 128 102 153 128 119 136 128 136 119 128 153 102 128 170 85 128 187 68 128
0 255 128 17 238 128 34 221 128 51 204 128 68 187 128 85 170 128 102 153 128 119 136 128 136 119 128 153 102 128 170 85 128 187 68 128
0 255 128 17 238 128 34 221 128 51 204 128 68 187 128 85 170 128 102 153 128 119 136 128 136 119 128 153 102 128 170 85 128 187 68 128
0 255 128 17 238 128 34 221 128 51 204 128 68 187 128 85 170 128 102 153 128 119 136 128 136 119 128 153 102 128 170 85 128 187 68 128
0 255 128 17 238 128 34 221 128 51 204 128 68 187 128 85 170 128 102 153 128 119 136 128 136 119 128 153 102 128 170 85 128 187 68 128
0 255 128 17 238 128 34 221 128 51 204 128 68 187 128 85 170 128 102 153 128 119 136 128 136 119 128 153 102 128 170 85 128 187 68 128
0 255 128 17 238 128 34 221 128 51 204 128 68 187 128 85 170 128 102 153 128 119 136 128 136 119 128 153 102 128 170 85 128 187 68 128
0 255 128 17 238 128 34 221 128 51 204 128 68 187 128 85 170 128 102 153 128 119 136 128 136 119 128 153 102 128 170 85 128 187 68 128
0 255 128 17 238 128 34 221 128 51 204 128 68 187 128 85 170 128 102 153 128 119 136 128 136 119 128 153 102 128 170 85 128 187 68 128
0 255 128 17 238 128 34 221 128 51 204 128 68 187 128 85 170 128 102 153 128 119 136 128 136 119 128 153 102 128 170 85 128 187 68 128
0 255 128 17 238 128 34 221 128 51 204 128 68 187 128 85 170 128 102 153 128 119 136 128 136 119 128 153 102 128 170 85 128 187 68 128
0 255 128 17 238 128 34 221 128 51 204 128 68 187 128 85 170 128 102 153 128 119 136 128 136 119 128 153 102 128 170 85 128 187 68 128
0 255 128 17 238 128 34 221 128 51 204 128 68 187 128 85 170 128 102 153 128 119 136 128 136 119 128 153 102 128 170 85 128 187 68 128

